Numix-Light/22/status/teamviewer-indicator-away.svg

<?xml version="1.0" encoding="UTF-8" standalone="no"?>
<svg
   xmlns:dc="http://purl.org/dc/elements/1.1/"
   xmlns:cc="http://creativecommons.org/ns#"
   xmlns:rdf="http://www.w3.org/1999/02/22-rdf-syntax-ns#"
   xmlns:svg="http://www.w3.org/2000/svg"
   xmlns="http://www.w3.org/2000/svg"
   xmlns:sodipodi="http://sodipodi.sourceforge.net/DTD/sodipodi-0.dtd"
   xmlns:inkscape="http://www.inkscape.org/namespaces/inkscape"
   width="22"
   viewBox="0 0 6.208889 6.208889"
   height="22"
   id="svg2"
   version="1.1"
   inkscape:version="0.91 r"
   sodipodi:docname="teamviewer-indicator-away.svg">
  <metadata
     id="metadata12">
    <rdf:RDF>
      <cc:Work
         rdf:about="">
        <dc:format>image/svg+xml</dc:format>
        <dc:type
           rdf:resource="http://purl.org/dc/dcmitype/StillImage" />
        <dc:title />
      </cc:Work>
    </rdf:RDF>
  </metadata>
  <sodipodi:namedview
     pagecolor="#ffffff"
     bordercolor="#666666"
     borderopacity="1"
     objecttolerance="10"
     gridtolerance="10"
     guidetolerance="10"
     inkscape:pageopacity="0"
     inkscape:pageshadow="2"
     inkscape:window-width="1920"
     inkscape:window-height="1056"
     id="namedview10"
     showgrid="true"
     inkscape:zoom="22.627418"
     inkscape:cx="4.6737785"
     inkscape:cy="10.948343"
     inkscape:window-x="0"
     inkscape:window-y="24"
     inkscape:window-maximized="1"
     inkscape:current-layer="svg2">
    <inkscape:grid
       type="xygrid"
       id="grid3815" />
  </sodipodi:namedview>
  <defs
     id="defs4" />
  <path
     style="fill:#353535;fill-opacity:1;fill-rule:evenodd;stroke:none;stroke-width:0.28222221px;stroke-linecap:butt;stroke-linejoin:miter;stroke-opacity:1"
     d="m 1.4111111,3.1044445 0.8466667,-0.8466667 0,0.5644444 1.6933333,0 0,-0.5644444 0.8466666,0.8466666 -0.8466666,0.8466668 0,-0.5644445 -1.6933333,0 0,0.5644444 z"
     id="path4136"
     inkscape:connector-curvature="0"
     sodipodi:nodetypes="ccccccccccc" />
  <g
     id="g4142"
     transform="matrix(0.28222222,0,0,0.28222222,-3.7701383,-2.3834898)">
    <path
       id="path22"
       d="m 30.565484,21.238375 1.414063,1.414062 -1.792664,1.792533 5.171632,0 0,2 -5.171632,0 1.792664,1.793405 -1.414063,1.414062 -4.206726,-4.207467 z"
       style="opacity:1;fill:#353535;fill-opacity:1;fill-rule:nonzero;stroke:none"
       inkscape:connector-curvature="0"
       sodipodi:nodetypes="cccccccccc" />
    <g
       transform="matrix(1.25,0,0,-1.25,-129.20625,298.11625)"
       id="g48" />
  </g>
  <g
     transform="matrix(0.28222222,0,0,0.28222222,-3.7700037,-2.3834898)"
     id="g4146"
     style="stroke:#000000;stroke-width:3;stroke-miterlimit:4;stroke-dasharray:none;stroke-opacity:1">
    <g
       id="g4150"
       transform="matrix(1.25,0,0,-1.25,-129.20625,298.11625)"
       style="stroke:#000000;stroke-width:2.4000001;stroke-miterlimit:4;stroke-dasharray:none;stroke-opacity:1" />
  </g>
  <path
     style="color:#000000;font-style:normal;font-variant:normal;font-weight:normal;font-stretch:normal;font-size:medium;line-height:normal;font-family:sans-serif;text-indent:0;text-align:start;text-decoration:none;text-decoration-line:none;text-decoration-style:solid;text-decoration-color:#000000;letter-spacing:normal;word-spacing:normal;text-transform:none;direction:ltr;block-progression:tb;writing-mode:lr-tb;baseline-shift:baseline;text-anchor:start;white-space:normal;clip-rule:nonzero;display:inline;overflow:visible;visibility:visible;opacity:1;isolation:auto;mix-blend-mode:normal;color-interpolation:sRGB;color-interpolation-filters:linearRGB;solid-color:#000000;solid-opacity:1;fill:#353535;fill-opacity:1;fill-rule:nonzero;stroke:none;stroke-width:0.56444442;stroke-linecap:butt;stroke-linejoin:miter;stroke-miterlimit:4;stroke-dasharray:none;stroke-dashoffset:0;stroke-opacity:1;color-rendering:auto;image-rendering:auto;shape-rendering:auto;text-rendering:auto;enable-background:accumulate"
     d="M 10.996094 2 C 6.0373758 2 2 6.0373758 2 10.996094 C 2 15.954812 6.0373758 20 10.996094 20 C 11.86904 20 12.712496 19.868393 13.511719 19.634766 L 11.826172 17.947266 C 11.553796 17.979231 11.277284 18 10.996094 18 C 7.118256 18 4.0000004 14.873932 4 10.996094 C 4 7.118256 7.118256 4.0000004 10.996094 4 C 14.873932 4 18 7.118256 18 10.996094 C 18 11.146907 17.987831 11.294961 17.978516 11.443359 L 19.71875 13.183594 C 19.89533 12.481842 20 11.751298 20 10.996094 C 20 6.0373758 15.954812 2 10.996094 2 z "
     transform="scale(0.28222222,0.28222222)"
     id="path4140" />
  <g
     transform="matrix(0.28222222,0,0,0.28222222,-3.7701383,-2.3834898)"
     id="g4143"
     style="stroke:#000000;stroke-opacity:1;stroke-width:3.00000004;stroke-miterlimit:4;stroke-dasharray:none">
    <g
       id="g4147"
       transform="matrix(1.25,0,0,-1.25,-129.20625,298.11625)"
       style="stroke:#000000;stroke-opacity:1;stroke-width:2.40000003;stroke-miterlimit:4;stroke-dasharray:none" />
  </g>
</svg>

<svg xmlns="http://www.w3.org/2000/svg" width="22" viewBox="0 0 6.208889 6.208889" height="22">
 <path d="m 1.411 3.104 0.847 -0.847 0 0.564 1.693 0 0 -0.564 0.847 0.847 -0.847 0.847 0 -0.564 -1.693 0 0 0.564 z" style="fill:#353535;fill-opacity:1;stroke:none;fill-rule:evenodd"/>
 <g transform="matrix(0.28222222,0,0,0.28222222,-3.7701383,-2.3834898)">
  <path d="m 30.565 21.238 1.414 1.414 -1.793 1.793 5.172 0 0 2 -5.172 0 1.793 1.793 -1.414 1.414 -4.207 -4.207 z" style="fill:#353535;opacity:1;fill-opacity:1;stroke:none;fill-rule:nonzero"/>
 </g>
 <path d="m 10.996 2 c -4.959 0 -8.996 4.04 -8.996 8.996 c 0 4.959 4.04 9 8.996 9 c 0.873 0 1.716 -0.132 2.516 -0.365 l -1.686 -1.688 c -0.272 0.032 -0.549 0.053 -0.83 0.053 c -3.878 0 -6.996 -3.126 -6.996 -7 c 0 -3.878 3.118 -6.996 6.996 -6.996 c 3.878 0 7 3.118 7 6.996 c 0 0.151 -0.012 0.299 -0.021 0.447 l 1.74 1.74 c 0.177 -0.702 0.281 -1.432 0.281 -2.188 c 0 -4.959 -4.045 -8.996 -9 -8.996 z" transform="scale(0.28222222,0.28222222)" mix-blend-mode="normal" isolation="auto" white-space="normal" solid-opacity="1" solid-color="#000000" style="visibility:visible;shape-rendering:auto;color-interpolation-filters:linearRGB;fill:#353535;opacity:1;image-rendering:auto;fill-opacity:1;stroke:none;display:inline;color:#000;fill-rule:nonzero;color-rendering:auto;color-interpolation:sRGB"/>
</svg>
